src/icons/svg/linkedin.svg

<svg width="20" height="20" fill="none" xmlns="http://www.w3.org/2000/svg"><path d="M2.667 1.72c-.482.13-.864.531-.965 1.013-.029.137-.036 2.004-.029 7.334l.01 7.15.124.259c.142.296.374.546.629.675.381.193-.075.182 7.597.182 7.799 0 7.258.015 7.634-.213.222-.136.474-.435.575-.685l.075-.185.009-7.2c.006-4.731-.003-7.254-.025-7.358a1.223 1.223 0 0 0-.693-.883l-.255-.126-7.251-.006c-6.306-.006-7.276 0-7.435.043m3.276 2.747c.421.061.756.304.943.685.091.184.097.225.097.581-.001.364-.006.394-.105.584a1.493 1.493 0 0 1-.604.594c-.133.061-.217.072-.541.072-.345 0-.401-.008-.566-.087-.519-.248-.788-.776-.703-1.378.088-.624.52-1.006 1.219-1.08.019-.002.135.011.26.029m7.495 3.514c1.022.217 1.732.95 1.995 2.059.113.477.133.974.133 3.285l.001 2.242h-2.43l-.012-2.275c-.01-2.037-.018-2.296-.069-2.475-.177-.612-.494-.9-1.035-.941a1.31 1.31 0 0 0-1.253.688c-.162.317-.167.404-.168 2.778v2.225H8.233V8.133H10.6v1.045l.137-.197c.34-.492.824-.837 1.375-.982.297-.077.999-.087 1.326-.018M6.867 11.85v3.717H4.433V8.133h2.434v3.717" fill="#19191C" fill-rule="evenodd"/></svg>

<svg width="20" height="20" viewBox="0 0 20 20" fill="none" xmlns="http://www.w3.org/2000/svg"><path d="M2.667 1.720 C 2.185 1.850,1.803 2.251,1.702 2.733 C 1.673 2.870,1.666 4.737,1.673 10.067 L 1.683 17.217 1.807 17.476 C 1.949 17.772,2.181 18.022,2.436 18.151 C 2.817 18.344,2.361 18.333,10.033 18.333 C 17.832 18.333,17.291 18.348,17.667 18.120 C 17.889 17.984,18.141 17.685,18.242 17.435 L 18.317 17.250 18.326 10.050 C 18.332 5.319,18.323 2.796,18.301 2.692 C 18.215 2.288,17.986 1.996,17.608 1.809 L 17.353 1.683 10.102 1.677 C 3.796 1.671,2.826 1.677,2.667 1.720 M5.943 4.467 C 6.364 4.528,6.699 4.771,6.886 5.152 C 6.977 5.336,6.983 5.377,6.983 5.733 C 6.982 6.097,6.977 6.127,6.878 6.317 C 6.755 6.553,6.495 6.808,6.274 6.911 C 6.141 6.972,6.057 6.983,5.733 6.983 C 5.388 6.983,5.332 6.975,5.167 6.896 C 4.648 6.648,4.379 6.120,4.464 5.518 C 4.552 4.894,4.984 4.512,5.683 4.438 C 5.702 4.436,5.818 4.449,5.943 4.467 M13.438 7.981 C 14.460 8.198,15.170 8.931,15.433 10.040 C 15.546 10.517,15.566 11.014,15.566 13.325 L 15.567 15.567 14.352 15.567 L 13.137 15.567 13.125 13.292 C 13.115 11.255,13.107 10.996,13.056 10.817 C 12.879 10.205,12.562 9.917,12.021 9.876 C 11.504 9.837,10.997 10.116,10.768 10.564 C 10.606 10.881,10.601 10.968,10.600 13.342 L 10.600 15.567 9.417 15.567 L 8.233 15.567 8.233 11.850 L 8.233 8.133 9.417 8.133 L 10.600 8.133 10.600 8.656 L 10.600 9.178 10.737 8.981 C 11.077 8.489,11.561 8.144,12.112 7.999 C 12.409 7.922,13.111 7.912,13.438 7.981 M6.867 11.850 L 6.867 15.567 5.650 15.567 L 4.433 15.567 4.433 11.850 L 4.433 8.133 5.650 8.133 L 6.867 8.133 6.867 11.850 " fill="#19191C" stroke="none" fill-rule="evenodd"></path></svg>
